cms/static/cms/icons/text.svg

<?xml version="1.0" encoding="UTF-8"?>
<svg width="24px" height="24px" viewBox="0 0 24 24" version="1.1" xmlns="http://www.w3.org/2000/svg" xmlns:xlink="http://www.w3.org/1999/xlink">
    <!-- Generator: Sketch 48.2 (47327) - http://www.bohemiancoding.com/sketch -->
    <title>Resources/icons/text</title>
    <desc>Created with Sketch.</desc>
    <defs>
        <path d="M13,5 L13,19 L15,19 C15.5522847,19 16,19.4477153 16,20 C16,20.5522847 15.5522847,21 15,21 L9,21 C8.44771525,21 8,20.5522847 8,20 C8,19.4477153 8.44771525,19 9,19 L11,19 L11,5 L5,5 L5,7 C5,7.55228475 4.55228475,8 4,8 C3.44771525,8 3,7.55228475 3,7 L3,4 C3,3.44771525 3.44771525,3 4,3 L20,3 C20.5522847,3 21,3.44771525 21,4 L21,7 C21,7.55228475 20.5522847,8 20,8 C19.4477153,8 19,7.55228475 19,7 L19,5 L13,5 Z" id="path-1"></path>
    </defs>
    <g id="Symbols" stroke="none" stroke-width="1" fill="none" fill-rule="evenodd">
        <g id="Resources/icons/text">
            <mask id="mask-2" fill="white">
                <use xlink:href="#path-1"></use>
            </mask>
            <use id="Combined-Shape" fill="#000000" fill-rule="nonzero" xlink:href="#path-1"></use>
            <g id="Resources/Colour/black" mask="url(#mask-2)" fill="#000000">
                <rect id="Rectangle" x="0" y="0" width="24" height="24"></rect>
            </g>
        </g>
    </g>
</svg>

<?xml version="1.0" encoding="utf-8"?>
<!-- Generator: Adobe Illustrator 19.1.0, SVG Export Plug-In . SVG Version: 6.00 Build 0)  -->
<svg version="1.1" id="Layer_1" xmlns="http://www.w3.org/2000/svg" xmlns:xlink="http://www.w3.org/1999/xlink" x="0px" y="0px"
	 viewBox="0 0 24 24" enable-background="new 0 0 24 24" xml:space="preserve">
<g>
	<path id="path-1" fill="#010101" d="M13,5v14h2c0.6,0,1,0.4,1,1s-0.4,1-1,1H9c-0.6,0-1-0.4-1-1s0.4-1,1-1h2V5H5v2c0,0.6-0.4,1-1,1
		S3,7.6,3,7V4c0-0.6,0.4-1,1-1h16c0.6,0,1,0.4,1,1v3c0,0.6-0.4,1-1,1s-1-0.4-1-1V5H13z"/>
</g>
</svg>
